contributed-vectors/daily_schedule.svg

<svg xmlns="http://www.w3.org/2000/svg" xml:space="preserve" style="fill-rule:evenodd;clip-rule:evenodd;stroke-linejoin:round;stroke-miterlimit:2" viewBox="0 0 192 192"><path d="M164.5 21.5c0-5.519-4.481-10-10-10h-133c-5.519 0-10 4.481-10 10v133c0 5.519 4.481 10 10 10h133c5.519 0 10-4.481 10-10v-133Z" style="fill:#9abeff" transform="translate(8 8)"/><path d="m127.342 119.292-31.818 17.32h-.379l-30.487-17.3v-19.03l31.034 17.917 31.65-17.96v19.053Z" style="fill:#fff" transform="translate(15.278 15.274) scale(.84085)"/><path d="M144.869 82.245h.007v35.456h-8.948V87.325l-40.236 22.833-48.568-28.041 48.299-26.789 49.446 26.917Z" style="fill:#fff" transform="translate(15.278 15.274) scale(.84085)"/></svg>

<?xml version="1.0" encoding="UTF-8" standalone="no"?>
<!DOCTYPE svg PUBLIC "-//W3C//DTD SVG 1.1//EN" "http://www.w3.org/Graphics/SVG/1.1/DTD/svg11.dtd">
<svg width="100%" height="100%" viewBox="0 0 192 192" version="1.1" xmlns="http://www.w3.org/2000/svg" xmlns:xlink="http://www.w3.org/1999/xlink" xml:space="preserve" xmlns:serif="http://www.serif.com/" style="fill-rule:evenodd;clip-rule:evenodd;stroke-linejoin:round;stroke-miterlimit:2;">
    <g id="Layer1">
        <g transform="matrix(1,0,0,1,8,8)">
            <path d="M164.5,21.5C164.5,15.981 160.019,11.5 154.5,11.5L21.5,11.5C15.981,11.5 11.5,15.981 11.5,21.5L11.5,154.5C11.5,160.019 15.981,164.5 21.5,164.5L154.5,164.5C160.019,164.5 164.5,160.019 164.5,154.5L164.5,21.5Z" style="fill:rgb(154,190,255);"/>
        </g>
        <g transform="matrix(0.840852,0,0,0.840852,15.2782,15.2735)">
            <path d="M127.342,119.292L95.524,136.612L95.145,136.612L64.658,119.312L64.658,100.282L95.692,118.199L127.342,100.239L127.342,119.292Z" style="fill:white;"/>
            <path d="M144.869,82.245L144.876,82.245L144.876,117.701L135.928,117.701L135.928,87.325L95.692,110.158L47.124,82.117L95.423,55.328L144.869,82.245Z" style="fill:white;"/>
        </g>
    </g>
</svg>
